public/static/img/assets/contract_icon.svg

<svg width="24" height="24" viewBox="0 0 24 24" fill="none" xmlns="http://www.w3.org/2000/svg">
<path d="M10.1803 21.6089C10.1803 22.0507 9.8543 22.4198 9.43102 22.488V22.4995H3.0818C2.20008 22.4995 1.47656 21.7519 1.47656 20.8256V1.68563C1.47656 0.764531 2.19562 0.0117188 3.08156 0.0117188H20.8948C21.777 0.0117188 22.4998 0.759375 22.4998 1.68563V10.4855C22.4998 10.9559 22.1149 11.3409 21.6443 11.3409C21.1739 11.3409 20.7888 10.9561 20.7888 10.4855V6.28453C20.7888 6.26742 20.7895 6.25055 20.7905 6.23367L20.7532 1.76859L3.27 1.81523L3.21563 20.7464L4.97156 20.7384C5.03203 20.7253 5.09484 20.7183 5.15906 20.7183H9.28969C9.29672 20.7183 9.30398 20.7188 9.31102 20.7188L9.43102 20.7183V20.7298C9.8543 20.798 10.1803 21.1671 10.1803 21.6089ZM6.21094 4.40578C5.69531 4.40578 5.27344 4.82766 5.27344 5.34328C5.27344 5.85891 5.69531 6.28078 6.21094 6.28078H17.8359C18.3516 6.28078 18.7734 5.85891 18.7734 5.34328C18.7734 4.82766 18.3516 4.40578 17.8359 4.40578H6.21094ZM12.8438 10.2638C12.8438 9.74813 12.4219 9.32625 11.9063 9.32625H6.19313C5.6775 9.32625 5.25563 9.74813 5.25563 10.2638C5.25563 10.7794 5.6775 11.2013 6.19313 11.2013H11.9063C12.4219 11.2013 12.8438 10.7794 12.8438 10.2638ZM10.2188 14.2495H6.18188C5.66625 14.2495 5.24438 14.6714 5.24438 15.187C5.24438 15.7027 5.66625 16.1245 6.18188 16.1245H10.2188C10.7344 16.1245 11.1563 15.7027 11.1563 15.187C11.1563 14.6714 10.7344 14.2495 10.2188 14.2495ZM15.7685 13.8045L12.2229 17.4788C11.9234 17.7914 11.9234 18.2866 12.2229 18.5993L17.1668 23.7591C17.4663 24.0717 17.9409 24.0717 18.2156 23.7591L18.7399 23.2118L16.0934 20.4497C15.9935 20.3454 15.9935 20.1891 16.0934 20.085C16.1932 19.9807 16.343 19.9807 16.4428 20.085L19.0896 22.8473L19.7888 22.1177L16.268 18.417C16.1681 18.3127 16.1681 18.1563 16.268 18.052C16.3678 17.9477 16.5176 17.9477 16.6177 18.052L20.1633 21.7526L20.8624 21.023L18.2156 18.2346C18.1158 18.1303 18.1158 17.974 18.2156 17.8699C18.3155 17.7656 18.4652 17.7656 18.5651 17.8699L21.2367 20.6323L22.2105 19.5377L16.8173 13.8045C16.5176 13.4916 16.0432 13.4916 15.7685 13.8045ZM23.7588 16.7752L21.6363 14.5601C21.3368 14.2474 20.8622 14.2474 20.5877 14.5601L19.3891 15.837L22.5602 19.1726L23.7588 17.9217C24.0584 17.583 24.0584 17.0878 23.7588 16.7752Z" fill="#36394C"/>
</svg>

<svg width="24" height="24" viewBox="0 0 24 24" fill="none" xmlns="http://www.w3.org/2000/svg"><path d="M10.18 21.609c0 .442-.326.81-.749.879v.012h-6.35c-.88 0-1.604-.748-1.604-1.674V1.686c0-.921.719-1.674 1.605-1.674h17.813c.882 0 1.605.747 1.605 1.674v8.8c0 .47-.385.855-.856.855a.858.858 0 0 1-.855-.855V6.285c0-.018 0-.034.002-.051l-.038-4.465-17.483.046-.054 18.931 1.756-.008a.885.885 0 0 1 .187-.02h4.272v.012c.423.068.75.437.75.879zM6.21 4.406a.94.94 0 0 0-.937.937.94.94 0 0 0 .938.938h11.625a.94.94 0 0 0 .937-.938.94.94 0 0 0-.937-.937H6.21zm6.634 5.858a.94.94 0 0 0-.938-.938H6.193a.94.94 0 0 0-.937.938.94.94 0 0 0 .937.937h5.713a.94.94 0 0 0 .938-.937zm-2.625 3.986H6.182a.94.94 0 0 0-.938.937.94.94 0 0 0 .938.938h4.037a.94.94 0 0 0 .937-.938.94.94 0 0 0-.937-.938zm5.55-.445-3.546 3.674a.81.81 0 0 0 0 1.12l4.944 5.16c.3.313.774.313 1.049 0l.524-.547-2.647-2.762a.26.26 0 0 1 0-.365c.1-.104.25-.104.35 0l2.647 2.762.699-.73-3.521-3.7a.26.26 0 0 1 0-.365c.1-.104.25-.104.35 0l3.545 3.7.7-.729-2.647-2.788a.26.26 0 0 1 0-.365c.1-.104.25-.104.35 0l2.67 2.762.974-1.094-5.393-5.733c-.3-.313-.774-.313-1.049 0zm7.99 2.97-2.123-2.215c-.3-.313-.774-.313-1.048 0l-1.199 1.277 3.171 3.336 1.199-1.251c.3-.339.3-.834 0-1.147z" fill="#36394C"/></svg>
